UI/Tools/SVG/cursor-pointer_solid_16px.svg

<svg width="16" height="16" viewBox="0 0 16 16" fill="none" xmlns="http://www.w3.org/2000/svg">
<path d="M8 9H9V12H8V9ZM10 9H11V12H10V9ZM6.5 2.5C6.76522 2.5 7.01957 2.60536 7.20711 2.79289C7.39464 2.98043 7.5 3.23478 7.5 3.5V7.28L8.75 7.49L12.62 8.13C12.7506 8.14002 12.8777 8.17721 12.993 8.23921C13.1084 8.3012 13.2096 8.38663 13.29 8.49C13.4973 8.86151 13.5511 9.29934 13.44 9.71L12.75 13.5H4.75L2.6 10.64C2.53904 10.5514 2.50437 10.4474 2.5 10.34V9.39C2.5 9.15396 2.59377 8.92758 2.76067 8.76068C2.92758 8.59377 3.15396 8.5 3.39 8.5H5.5V3.5C5.5 3.23478 5.60536 2.98043 5.79289 2.79289C5.98043 2.60536 6.23478 2.5 6.5 2.5ZM6.5 1C5.83696 1 5.20107 1.26339 4.73223 1.73223C4.26339 2.20107 4 2.83696 4 3.5V7H3.39C2.75613 7 2.14823 7.2518 1.70001 7.70001C1.2518 8.14823 1 8.75613 1 9.39V10.34C1 10.7727 1.14036 11.1938 1.4 11.54L4 15H14L14.91 10C15.2 8.51 14.64 7 12.86 6.67L9 6V3.5C9 2.83696 8.73661 2.20107 8.26777 1.73223C7.79893 1.26339 7.16304 1 6.5 1Z" fill="#0F1621"/>
</svg>

<svg xmlns="http://www.w3.org/2000/svg" width="16" height="16" viewBox="0 0 16 16"><rect width="16" height="16" style="fill:none"/><path d="M8,9H9v3H8Zm2,0h1v3H10ZM6.5,2.5a1,1,0,0,1,1,1V7.28l1.25.21,3.87.64a.94.94,0,0,1,.67.36,1.63,1.63,0,0,1,.15,1.22l-.69,3.79h-8L2.6,10.64a.57.57,0,0,1-.1-.3V9.39a.89.89,0,0,1,.89-.89H5.5v-5a1,1,0,0,1,1-1M6.5,1A2.5,2.5,0,0,0,4,3.5V7H3.39A2.39,2.39,0,0,0,1,9.39v.95a2,2,0,0,0,.4,1.2L4,15H14l.91-5c.29-1.49-.27-3-2.05-3.33L9,6V3.5A2.5,2.5,0,0,0,6.5,1Z"/></svg>
